MB--Logotype-Blue.svg

<svg height="230" viewBox="0 0 1561 230" width="1561" xmlns="http://www.w3.org/2000/svg"><path d="m438.1 74.5h21v211.5h-43.2v-117l-65.4 91.8-65.7-91.8v117h-42.9v-211.5h21l87.6 121.2zm183.6 48.6h41.7v162.9h-41.7v-12c-13.5 9-29.7 14.4-47.7 14.4-51 0-81-41.1-81-84.3 0-43.5 30-84.3 81-84.3 17.1 0 33.9 5.4 47.7 13.5zm0 114v-65.4c-10.2-8.7-24.6-14.1-40.2-14.1-29.7 0-48.3 22.2-48.3 46.5 0 24.6 18.9 46.8 48.3 46.8 15.9 0 30-5.1 40.2-13.8zm70.2 35.7 15.6-30.9c20.1 8.7 35.4 13.2 55.8 13.2 19.2 0 26.7-7.2 26.7-15.6 0-9.3-9.3-13.5-34.5-18.9-35.1-7.8-60.6-19.2-60.6-50.7 0-29.4 24.3-49.8 62.1-49.8 25.5 0 45.9 6 63.6 13.2l-13.8 30.6c-15.9-6-34.5-10.5-50.7-10.5-15.9 0-24 5.7-24 14.4 0 9 9.9 13.2 36 18.6 37.8 7.8 59.7 21 59.7 50.7 0 30.9-23.7 51.3-65.4 51.3-28.2 0-46.5-3.9-70.5-15.6zm266.1-86.1 60.3 99.3h-46.2l-41.7-66.6-31.5 30.3v36.3h-41.7v-226.2h41.7v133.2l69.6-69.9h48.9zm170.1-66.6c45.6 0 82.5 33.3 82.5 84.3 0 50.1-36.9 84.3-82.5 84.3-17.1 0-33.9-4.8-47.4-12.9v10.2h-41.7v-226.2h41.7v72.6c13.8-7.5 30-12.3 47.4-12.3zm-7.5 130.8c28.2 0 48.9-18.9 48.9-46.5 0-26.7-20.7-46.8-48.9-46.8-15.9 0-29.7 5.4-39.9 13.8v65.4c10.2 8.7 24.3 14.1 39.9 14.1zm201-130.8c49.2 0 89.1 37.5 89.1 84.3 0 46.5-39.9 84-89.1 84s-89.1-37.5-89.1-84c0-46.8 39.9-84.3 89.1-84.3zm0 130.8c26.7 0 48-21 48-46.5 0-25.8-21.3-46.8-48-46.8-26.4 0-48 21-48 46.8 0 25.5 21.6 46.5 48 46.5zm199.8-130.8c49.2 0 89.1 37.5 89.1 84.3 0 46.5-39.9 84-89.1 84s-89.1-37.5-89.1-84c0-46.8 39.9-84.3 89.1-84.3zm0 130.8c26.7 0 48-21 48-46.5 0-25.8-21.3-46.8-48-46.8-26.4 0-48 21-48 46.8 0 25.5 21.6 46.5 48 46.5zm219.9-64.2 60.3 99.3h-46.2l-41.7-66.6-31.5 30.3v36.3h-41.7v-226.2h41.7v133.2l69.6-69.9h48.9z" fill="#1c68f3" transform="translate(-241 -59)"/></svg>

<?xml version="1.0" encoding="UTF-8"?>
<svg width="1561px" height="230px" viewBox="0 0 1561 230" version="1.1" xmlns="http://www.w3.org/2000/svg" xmlns:xlink="http://www.w3.org/1999/xlink">
    <!-- Generator: Sketch 57.1 (83088) - https://sketch.com -->
    <title>MB--Logotype-Blue</title>
    <desc>Created with Sketch.</desc>
    <g id="Branding" stroke="none" stroke-width="1" fill="none" fill-rule="evenodd">
        <g id="MB--Logotype-White" transform="translate(-241.000000, -59.000000)" fill="#1C68F3" fill-rule="nonzero">
            <path d="M438.1,74.5 L459.1,74.5 L459.1,286 L415.9,286 L415.9,169 L350.5,260.8 L284.8,169 L284.8,286 L241.9,286 L241.9,74.5 L262.9,74.5 L350.5,195.7 L438.1,74.5 Z M621.7,123.1 L663.4,123.1 L663.4,286 L621.7,286 L621.7,274 C608.2,283 592,288.4 574,288.4 C523,288.4 493,247.3 493,204.1 C493,160.6 523,119.8 574,119.8 C591.1,119.8 607.9,125.2 621.7,133.3 L621.7,123.1 Z M621.7,237.1 L621.7,171.7 C611.5,163 597.1,157.6 581.5,157.6 C551.8,157.6 533.2,179.8 533.2,204.1 C533.2,228.7 552.1,250.9 581.5,250.9 C597.4,250.9 611.5,245.8 621.7,237.1 Z M691.9,272.8 L707.5,241.9 C727.6,250.6 742.9,255.1 763.3,255.1 C782.5,255.1 790,247.9 790,239.5 C790,230.2 780.7,226 755.5,220.6 C720.4,212.8 694.9,201.4 694.9,169.9 C694.9,140.5 719.2,120.1 757,120.1 C782.5,120.1 802.9,126.1 820.6,133.3 L806.8,163.9 C790.9,157.9 772.3,153.4 756.1,153.4 C740.2,153.4 732.1,159.1 732.1,167.8 C732.1,176.8 742,181 768.1,186.4 C805.9,194.2 827.8,207.4 827.8,237.1 C827.8,268 804.1,288.4 762.4,288.4 C734.2,288.4 715.9,284.5 691.9,272.8 Z M958,186.7 L1018.3,286 L972.1,286 L930.4,219.4 L898.9,249.7 L898.9,286 L857.2,286 L857.2,59.8 L898.9,59.8 L898.9,193 L968.5,123.1 L1017.4,123.1 L958,186.7 Z M1128.1,120.1 C1173.7,120.1 1210.6,153.4 1210.6,204.4 C1210.6,254.5 1173.7,288.7 1128.1,288.7 C1111,288.7 1094.2,283.9 1080.7,275.8 L1080.7,286 L1039,286 L1039,59.8 L1080.7,59.8 L1080.7,132.4 C1094.5,124.9 1110.7,120.1 1128.1,120.1 Z M1120.6,250.9 C1148.8,250.9 1169.5,232 1169.5,204.4 C1169.5,177.7 1148.8,157.6 1120.6,157.6 C1104.7,157.6 1090.9,163 1080.7,171.4 L1080.7,236.8 C1090.9,245.5 1105,250.9 1120.6,250.9 Z M1321.6,120.1 C1370.8,120.1 1410.7,157.6 1410.7,204.4 C1410.7,250.9 1370.8,288.4 1321.6,288.4 C1272.4,288.4 1232.5,250.9 1232.5,204.4 C1232.5,157.6 1272.4,120.1 1321.6,120.1 Z M1321.6,250.9 C1348.3,250.9 1369.6,229.9 1369.6,204.4 C1369.6,178.6 1348.3,157.6 1321.6,157.6 C1295.2,157.6 1273.6,178.6 1273.6,204.4 C1273.6,229.9 1295.2,250.9 1321.6,250.9 Z M1521.4,120.1 C1570.6,120.1 1610.5,157.6 1610.5,204.4 C1610.5,250.9 1570.6,288.4 1521.4,288.4 C1472.2,288.4 1432.3,250.9 1432.3,204.4 C1432.3,157.6 1472.2,120.1 1521.4,120.1 Z M1521.4,250.9 C1548.1,250.9 1569.4,229.9 1569.4,204.4 C1569.4,178.6 1548.1,157.6 1521.4,157.6 C1495,157.6 1473.4,178.6 1473.4,204.4 C1473.4,229.9 1495,250.9 1521.4,250.9 Z M1741.3,186.7 L1801.6,286 L1755.4,286 L1713.7,219.4 L1682.2,249.7 L1682.2,286 L1640.5,286 L1640.5,59.8 L1682.2,59.8 L1682.2,193 L1751.8,123.1 L1800.7,123.1 L1741.3,186.7 Z" id="MB--Logotype-Blue"></path>
        </g>
    </g>
</svg>
